X:1
T:Earl's Chair, The
R:reel
D:Patrick Street 1
D:Mary MacNamara
Z:id:hn-reel-25
M:4/4
L:1/8
K:Bm
B2~B2 BAFA|B2dB BAFB|AF~F2 DF~F2|AFdB ADFA|
B2dB BAFA|B2dB BAFB|AFAB defd|1 edef d3A:|2 edef d3f|]
|:~e3f d2df|edef dBA2|~e3f dcde|fedB ADFA|
~e3f eB~B2|gB~B2 defg|afbf afeg|fedB ADFA:|
</abc>
